X: 7
T: Branle Normand
T: Circle dance from Normandy
M: 2/4
L: 1/8
Z: 2009 John Chambers <jc:trillian.mit.edu>
S: printed & handwritten MSS of unknown origin
K: G
%%indent 290
"Intro"|"G"BA Bc | de dc | B2 "D7"A2 | "G"G4 ||
|:"G"B2 Bc | d2 d2 | B2 "D7"A2 | "G"G4 \
| "G"BA Bc | de dc | B2 "D7"A2 | "G"G4 |
| "G"d2 ef | g2 g2 | "C"f2 e2 | "G"d4 \
| "C"ef ge | "G"d2 d2 | "C"ef ge | "G"d4 |
| "G"BA Bc | de dc | Bc BA | "D7"A2 "G"G2 \
| "G"BA Bc | de dc | B2 "D7"A2 | "G"G4 :|

%%sep 1 1 500

